!!!OTL: TUARL HAUT GSAGT
!!!ARE: Europa, Mitteleuropa, Deutschland, Boehmen
!!!SCT: K0973
!!!YEM: Copyright 1995, estate of Helmut Schaffrath.
**kern
*ICvox
*Ivox
*M3/4
*k[f#]
*G:
=1
{4b
4b
4b
=2
4b
4b
4b}
=3
{8dd
8dd
4cc
4b
=4
2a
4r}
=5
{4cc
4b
4a
=6
2g
4r}
=7
{4b
4b
4b
=8
4b
4b
4b}
=9
{8dd
8dd
4cc
4b
=10
2a
4r}
=11
{4cc
4b
4a
=12
2g
4r}
==
!!!AGN: Kinder - Lied, Pflanzen
!!!ONB: ESAC (Essen Associative Code) Database: KINDER
!!!AMT: simple triple
!!!AIN: vox
!!!EED: Helmut Schaffrath
!!!EEV: 1.0
*-
